X:1
T:Kingussie Flower
T:Kingussie Flower
T:Old Song
C:Old Song
L:1/8
M:2/4
K:Dmin
V:1 treble 
V:1
 D/E/ |"Dm" FA A=B/^c/ | dAAf |"A7" ed f/e/d/^c/ |"Dm" [Fd]3 D/E/ |"Dm" FA A=B/^c/ | dAAf | %7
"A7" ed f/e/d/^c/ |"Dm" [Fd]3 || f/g/ |"Dm" af f g/a/ |"C" gc c d/e/ |"Dm" fd d e/f/ | %13
"A7" eA A F/G/ |"Dm" A/G/F/G/ A/G/F/G/ | A/G/A/B/ Af |"A7" ed f/e/d/^c/ |"Dm" [Fd]3/2 |] %18

